X: 1996
T:Staten Island Hornpipe. WM053
M:C
L:1/8
S:Wm.Mittell,1799
R:Hornpipe
O:England
A:Kent
Z:C.G.P
K:D
AGFDFG A2A2|defdc2Ac|B2GBA2FA|G2E2E2AG|
FDFGA2A2|!defdc2A2|d2d2defe|f2d2d2:|
|:fg|a2fag2eg|f2dfe2A2|!=c2c2efge|=c2c2efge|
a2fag2eg|f2dfe2A2|d2d2efge|f2d2d2:|]
